icons/laundry-11.svg

<?xml version="1.0" encoding="utf-8"?>
<!-- Generator: Adobe Illustrator 19.2.1, SVG Export Plug-In . SVG Version: 6.00 Build 0)  -->
<!DOCTYPE svg PUBLIC "-//W3C//DTD SVG 1.1//EN" "http://www.w3.org/Graphics/SVG/1.1/DTD/svg11.dtd">
<svg version="1.1"
	 id="svg4764" inkscape:version="0.91 r13725" sodipodi:docname="laundry-11.svg" xmlns:cc="http://creativecommons.org/ns#" xmlns:dc="http://purl.org/dc/elements/1.1/" xmlns:inkscape="http://www.inkscape.org/namespaces/inkscape" xmlns:rdf="http://www.w3.org/1999/02/22-rdf-syntax-ns#" xmlns:sodipodi="http://sodipodi.sourceforge.net/DTD/sodipodi-0.dtd" xmlns:svg="http://www.w3.org/2000/svg"
	 xmlns="http://www.w3.org/2000/svg" xmlns:xlink="http://www.w3.org/1999/xlink" x="0px" y="0px" width="11px" height="11px"
	 viewBox="0 0 11 11" style="enable-background:new 0 0 11 11;" xml:space="preserve">
<path id="path3291" d="M5,0L4,2H2c0,0-1,0-1,1v7c0,0,0,1,1,1h7c1,0,1-1,1-1V1c0-1-1-1-1-1H5z M6,1h3v1H6V1z M5.5,4
	C6.8807,4,8,5.1193,8,6.5S6.8807,9,5.5,9S3,7.8807,3,6.5S4.1193,4,5.5,4z"/>
</svg>

<?xml version="1.0" encoding="UTF-8" standalone="no"?>
<!-- Created with Inkscape (http://www.inkscape.org/) -->

<svg
   xmlns:dc="http://purl.org/dc/elements/1.1/"
   xmlns:cc="http://creativecommons.org/ns#"
   xmlns:rdf="http://www.w3.org/1999/02/22-rdf-syntax-ns#"
   xmlns:svg="http://www.w3.org/2000/svg"
   xmlns="http://www.w3.org/2000/svg"
   xmlns:sodipodi="http://sodipodi.sourceforge.net/DTD/sodipodi-0.dtd"
   xmlns:inkscape="http://www.inkscape.org/namespaces/inkscape"
   version="1.1"
   width="11"
   height="11"
   id="svg4764"
   xml:space="preserve"
   inkscape:version="0.91 r13725"
   sodipodi:docname="laundry-11.svg"
   viewBox="0 0 11 11"><sodipodi:namedview
     pagecolor="#ffffff"
     bordercolor="#666666"
     borderopacity="1"
     objecttolerance="10"
     gridtolerance="10"
     guidetolerance="10"
     inkscape:pageopacity="0"
     inkscape:pageshadow="2"
     inkscape:window-width="1638"
     inkscape:window-height="829"
     id="namedview3423"
     inkscape:document-units="px"
     showgrid="true"
     inkscape:zoom="45.254834"
     inkscape:cx="0.41964731"
     inkscape:cy="6.4043432"
     inkscape:current-layer="svg4764"
     inkscape:snap-bbox="true"
     inkscape:bbox-paths="true"
     inkscape:bbox-nodes="true"
     inkscape:snap-bbox-edge-midpoints="true"
     inkscape:object-paths="true"
     inkscape:snap-intersection-paths="true"
     inkscape:object-nodes="true"
     inkscape:window-x="0"
     inkscape:window-y="0"
     inkscape:window-maximized="0"><inkscape:grid
       type="xygrid"
       id="grid3333"
       spacingx="0.5"
       spacingy="0.5"
       color="#ff0000"
       opacity="0.1254902"
       empspacing="2" /></sodipodi:namedview><metadata
     id="metadata27"><rdf:RDF><cc:Work
         rdf:about=""><dc:format>image/svg+xml</dc:format><dc:type
           rdf:resource="http://purl.org/dc/dcmitype/StillImage" /><dc:title></dc:title></cc:Work></rdf:RDF></metadata><defs
     id="defs25" /><path
     style="fill:#000000;fill-opacity:1"
     d="M 5 0 L 4 2 L 2 2 C 2 2 1 2 1 3 L 1 10 C 1 10 1 11 2 11 L 9 11 C 10 11 10 10 10 10 L 10 1 C 10 0 9 0 9 0 L 5 0 z M 6 1 L 9 1 L 9 2 L 6 2 L 6 1 z M 5.5 4 A 2.5 2.5 0 0 1 8 6.5 A 2.5 2.5 0 0 1 5.5 9 A 2.5 2.5 0 0 1 3 6.5 A 2.5 2.5 0 0 1 5.5 4 z "
     id="path3291" /></svg>
